icons/lines/security-safe.svg

<svg xmlns="http://www.w3.org/2000/svg" width="24" height="24" viewBox="0 0 24 24" fill="none" stroke="currentColor" stroke-width="2" stroke-linecap="round" stroke-linejoin="round" >
  <path d="M20.9099 11.12C20.9099 16.01 17.3599 20.59 12.5099 21.93C12.1799 22.02 11.8198 22.02 11.4898 21.93C6.63984 20.59 3.08984 16.01 3.08984 11.12V6.73003C3.08984 5.91003 3.70986 4.98004 4.47986 4.67004L10.0498 2.39007C11.2998 1.88007 12.7098 1.88007 13.9598 2.39007L19.5298 4.67004C20.2898 4.98004 20.9199 5.91003 20.9199 6.73003L20.9099 11.12Z"/>
  <path d="M12 12.5C13.1046 12.5 14 11.6046 14 10.5C14 9.39543 13.1046 8.5 12 8.5C10.8954 8.5 10 9.39543 10 10.5C10 11.6046 10.8954 12.5 12 12.5Z" stroke-miterlimit="10"/>
  <path d="M12 12.5V15.5" stroke-miterlimit="10"/>
  </svg>

<svg xmlns="http://www.w3.org/2000/svg" width="24" height="24" viewBox="0 0 24 24" fill="none" stroke="currentColor" stroke-width="2" stroke-linecap="round" stroke-linejoin="round">
  <path d="M12 12.5v3" />
  <path d="M20.91 11.12c0 4.89-3.55 9.47-8.4 10.81a2 2 0 0 1-1.02 0c-4.85-1.34-8.4-5.92-8.4-10.81V6.73c0-.82.62-1.75 1.39-2.06l5.57-2.28a5.2 5.2 0 0 1 3.91 0l5.57 2.28c.76.31 1.39 1.24 1.39 2.06z" />
  <circle cx="12" cy="10.5" r="2" />
</svg>
